build/finance/FinanceSolid.svg

<svg xmlns="http://www.w3.org/2000/svg" fill="none" viewBox="0 0 24 24" focusable="false"><path d="M0 0H24V24H0z"/><path fill="#74767B" fill-rule="evenodd" d="M14.0094 5.64059C14.0094 7.10252 11.547 8.28765 8.50945 8.28765C5.47188 8.28765 3.00945 7.10252 3.00945 5.64059C3.00945 4.17866 5.47188 2.99353 8.50945 2.99353C11.547 2.99353 14.0094 4.17866 14.0094 5.64059ZM3.1564 8.58421C3.38228 8.3052 3.79157 8.26211 4.07059 8.48799C4.35465 8.71794 5.83801 9.78115 8.50494 9.78115C8.86393 9.78115 9.15494 10.0722 9.15494 10.4311C9.15494 10.7901 8.86393 11.0811 8.50494 11.0811C5.47279 11.0811 3.70962 9.86835 3.25263 9.4984C3.09396 9.36996 3.01159 9.18219 3.01159 8.9928C3.01159 8.84915 3.05898 8.70456 3.1564 8.58421ZM20.9502 12.3238C20.9502 13.7858 18.4878 14.9709 15.4502 14.9709C12.4127 14.9709 9.95023 13.7858 9.95023 12.3238C9.95023 10.8619 12.4127 9.67679 15.4502 9.67679C18.4878 9.67679 20.9502 10.8619 20.9502 12.3238ZM3.1564 11.2336C3.38228 10.9546 3.79157 10.9115 4.07059 11.1374C4.36305 11.3742 5.89986 12.4919 8.55837 12.4919C8.91736 12.4919 9.20837 12.7829 9.20837 13.1419C9.20837 13.5009 8.91736 13.7919 8.55837 13.7919C5.51781 13.7919 3.70122 12.511 3.25263 12.1478C3.09396 12.0194 3.01159 11.8316 3.01159 11.6422C3.01159 11.4986 3.05898 11.354 3.1564 11.2336ZM3.1564 13.9743C3.38228 13.6953 3.79157 13.6522 4.07059 13.8781C4.36305 14.1148 5.89986 15.2325 8.55837 15.2325C8.91736 15.2325 9.20837 15.5235 9.20837 15.8825C9.20837 16.2415 8.91736 16.5325 8.55837 16.5325C5.51781 16.5325 3.70122 15.2516 3.25263 14.8885C3.09396 14.76 3.01159 14.5723 3.01159 14.3829C3.01159 14.2392 3.05898 14.0946 3.1564 13.9743ZM10.0972 15.2674C10.3231 14.9884 10.7324 14.9453 11.0114 15.1712C11.2954 15.4012 12.7788 16.4644 15.4457 16.4644C18.1296 16.4644 19.5491 15.4773 19.8773 15.1885C20.1468 14.9513 20.5575 14.9775 20.7947 15.247C20.9033 15.3705 20.9567 15.5237 20.9567 15.6762C20.9567 15.8565 20.8821 16.0359 20.7361 16.1644C20.1821 16.6519 18.4609 17.7644 15.4457 17.7644C12.4136 17.7644 10.6504 16.5516 10.1934 16.1816C10.0347 16.0532 9.95237 15.8654 9.95237 15.676C9.95237 15.5324 9.99976 15.3878 10.0972 15.2674ZM10.0972 17.9169C10.3231 17.6379 10.7324 17.5948 11.0114 17.8207C11.3038 18.0574 12.8406 19.1752 15.4992 19.1752C18.1634 19.1752 19.5327 18.1412 19.8773 17.8379C20.1468 17.6008 20.5575 17.627 20.7947 17.8965C20.9033 18.02 20.9567 18.1731 20.9567 18.3256C20.9567 18.506 20.8821 18.6854 20.7361 18.8139C20.1985 19.287 18.534 20.4752 15.4992 20.4752C12.4586 20.4752 10.642 19.1943 10.1934 18.8311C10.0347 18.7027 9.95237 18.5149 9.95237 18.3255C9.95237 18.1819 9.99976 18.0373 10.0972 17.9169Z"/></svg>

<svg xmlns="http://www.w3.org/2000/svg" fill="none" viewBox="0 0 24 24" focusable="false"><path fill="#74767B" fill-rule="evenodd" d="M14 5.64c0 1.46-2.46 2.64-5.5 2.64C5.47 8.28 3 7.1 3 5.64c0-1.47 2.47-2.65 5.5-2.65 3.04 0 5.5 1.18 5.5 2.65M3.15 8.58c.23-.28.64-.32.92-.1.28.23 1.76 1.3 4.43 1.3.36 0 .65.29.65.65s-.29.65-.65.65c-3.03 0-4.8-1.22-5.25-1.59a.63.63 0 0 1-.24-.5c0-.15.04-.29.14-.41m17.8 3.74c0 1.46-2.47 2.65-5.5 2.65-3.04 0-5.5-1.19-5.5-2.65s2.46-2.65 5.5-2.65c3.03 0 5.5 1.19 5.5 2.65m-17.8-1.09c.23-.28.64-.32.92-.1.29.24 1.82 1.36 4.48 1.36.36 0 .65.29.65.65s-.29.65-.65.65c-3.04 0-4.85-1.28-5.3-1.65a.63.63 0 0 1-.24-.5c0-.15.04-.29.14-.41m0 2.74c.23-.28.64-.32.92-.1.29.24 1.82 1.36 4.48 1.36.36 0 .65.29.65.65s-.29.65-.65.65c-3.04 0-4.85-1.28-5.3-1.65a.62.62 0 0 1-.24-.5c0-.15.04-.29.14-.41m6.94 1.29c.23-.28.64-.32.92-.09s1.76 1.29 4.43 1.29c2.68 0 4.1-.99 4.43-1.28a.66.66 0 0 1 .92.06.66.66 0 0 1-.06.92c-.55.49-2.27 1.6-5.29 1.6-3.03 0-4.79-1.21-5.25-1.58a.65.65 0 0 1-.24-.51c0-.14.04-.29.14-.41m0 2.65c.23-.28.64-.32.92-.09.29.23 1.83 1.35 4.48 1.35 2.67 0 4.04-1.03 4.38-1.34a.66.66 0 0 1 .92.06.66.66 0 0 1-.06.92c-.54.47-2.2 1.66-5.24 1.66s-4.85-1.28-5.3-1.64a.65.65 0 0 1-.24-.51c0-.14.04-.29.14-.41"/></svg>
